X:50
T:Jack Maddocks. RHu.050
S:R.Hughes MS,1823,Whitchurch,Shrops.
A:Whitchurch, Shropshire
Z:Neil Brookes 2006
M:6/8
L:1/8
Q:3/8=120
R:Jig
K:D
A|d2d dcd|e2e efg|fed dcd|ecA ABc|!
d2d dcd|e2e efg|faf gec|d3-d2::!
fdf fdf|geg geg|fdf fdf|ecAA3|!
fdf fdf|geg geg|faf gec|d3-d2:|

